X:212
T:Alvarado reel
O:england
M:C|
R:Reel
C:Stefan Engstr\"om
K:Bmin
F|~B2Bc dB {c}BA|Bcde f2de|f2 {b}af gfec|1 dBBA BAFA:|2dBBA B2Bd||\
f3g afdf|ecAc efge|faaf gfeg|1 dBBA Bcde:|2 dBAF B2 DE||\
~F3d BAFE|DEFd B3c|dcdf ecAc|1dBBA BAFE:|2 dBAc B3c||\
dcBA BAFA|B2cd B2fg|~a3f gfec|1 dBBA BABc:|2 dBBA B3 z||


